!!!SOCIAL_FUNCTION:	songs with stories
!!!PDT:	1956
!!!OTL: No_231_The_Rabbit_Brings_Back_a_Snake.krn
!!!LANG: Non-Tone
!!!LING_GROUP: Muskogean
!!!REG: Florida
**kern
*staff1
=1-
=
*clefF4
*k[f#c#]
*M2/4
2A\
=2
8.A\L
16F#\Jk
4E\
=3
4D\
4BB/
=4
8E\L
8E\J
12D/L
12BB/
12BB/J
=5
4D\
4BB/
=6||
*M3/4
8BB/L
8BB/J
8BB/
8r
4r
=7||
*M2/4
8BB/L
8BB/J
8BB/
8r
=8
8BB/L
8BB/J
8BB/
8r
=9
4D\
4BB/
=10||
*M3/4
8BB/L
8BB/J
8BB/
4.r
=11||
*M2/4
8BB/L
8BB/J
8BB/
8r
==:|!
*-
